X:1
T:When I Look Tae Yon High Hills
M:3/4
L:1/4
K:G
 B/2A/2| G E G| D/2 B,3/2 B,/2C/2| D G A| G2 G| G B d/2d/2| d B G|\
 e d B| A2 G/2G/2| G B d| d B G| e d B| A2 B/2A/2| G E G| D B, B,/2C/2|\
 D G3/2 A/2| G2||
